X:230
T:Do It For My Sake
M:3/4
L:1/8
Q:120
S:Hudson MS
N:From Paul de Grae
D:Richard Thompson, "Strict Tempo", Hannibal HNCD 440
K:D
F^A|: B2 c2 d2|d2 c2 AF|F2 d2 dc|B4 AB|d2 d2 BA|
B2 B2 AG|F2 AF ED|B,>C DEFG|E2 DD3-|1 D4 F^A:|2 D4 B,C|
|: DE FG A2|G2 F>E F^A|B>d c>B A>F|A4 (3ABd|e2 e2 de|
f2 f2 ed|B2 B2 dB|A2 A2 GF|E D D3-|1 D4 B,C:|2 D4 F^A ||
